X:57
T:Essex Bazurka
C:Dave Roberts
Z:Anahata (anahata@treewind.co.uk)
M:3/4
K:G
"D"(3DED ^CD EF | "G"GA Bc ^cd | "D"ed c2 A2 | "G"ed B2 G2 |
"D"(3DED ^CD EF | "G"GA Bc ^cd | "D"ed cd Fd | G2 G4 :|
|: (3gfg ag fe | (3ded Be dB | d^c =cA FA | (3GFG Bc ^cd |
  (3gfg ag fe | (3ded Be dB | d^c =cd Fd | G2 G4 :|
